!!!COM: Palestrina, Giovanni Perluigi da
!!!OPR: Ecce sacerdos magnus
!!!OTL: Sanctus
**kern	**kern	**kern	**kern
*Ibass	*Itenor	*Icalto	*Icant
!Bassus	!Tenor	!Altus	!Cantus
*clefF4	*clefGv2	*clefG2	*clefG2
*k[]	*k[]	*k[]	*k[]
*G:mix	*G:mix	*G:mix	*G:mix
*M4/2	*M4/2	*M4/2	*M4/2
=1	=1	=1	=1
0r	1G	0r	0r
.	[1c	.	.
=2	=2	=2	=2
0r	2c]	[0g	0r
.	4B	.	.
.	4A	.	.
.	2B	.	.
.	2c	.	.
=3	=3	=3	=3
1G	1d	0g]	0r
[1c	[1e	.	.
=4	=4	=4	=4
2c]	2e]	0g	0r
4B	4d	.	.
4A	4c	.	.
2B	2d	.	.
[2c	[2e	.	.
=5	=5	=5	=5
4c]	4e]	0e	1g
4B	8d	.	.
.	8c	.	.
2G	2B	.	.
1A	4A	.	[1cc
.	4B	.	.
.	4c	.	.
.	4d	.	.
=6	=6	=6	=6
2.E	1e	[0g	2cc]
.	.	.	4b
4F	.	.	4a
2G	2d	.	2b
2C	[2c	.	2cc
=7	=7	=7	=7
1G	2c]	0g]	1dd
.	2B	.	.
1r	2.c	.	1ee
.	4d	.	.
=8	=8	=8	=8
1A	2e	[0a	1cc
.	2.f	.	.
[1d	.	.	[1ff
.	4e	.	.
.	2d	.	.
=9	=9	=9	=9
2d]	1A	0a]	2ff]
4c	.	.	4ee
4B	.	.	4dd
2c	1r	.	2ee
2d	.	.	2ff
=10	=10	=10	=10
2e	1r	[0g	2.gg
2.c	.	.	.
.	.	.	4ff
.	1G	.	2ee
8B	.	.	.
8A	.	.	.
2B	.	.	2dd
=11	=11	=11	=11
2c	1.c	0g]	1.ee
2C	.	.	.
1G	.	.	.
.	4B	.	4dd
.	4A	.	4cc
=12	=12	=12	=12
1r	2B	[0g	2dd
.	2c	.	1cc
1G	1d	.	.
.	.	.	2b
=13	=13	=13	=13
1.c	2.e	0g]	2cc
.	.	.	1ee
.	4d	.	.
.	4e	.	.
.	4f	.	.
4B	2g	.	[2dd
4A	.	.	.
=14	=14	=14	=14
2B	2d	0r	2dd]
2c	1g	.	4cc
.	.	.	4b
2.d	.	.	1a
.	4f	.	.
4c	4e	.	.
=15	=15	=15	=15
2A	2f	0r	1r
2.c	2.e	.	.
.	.	.	1g
4B	4d	.	.
2G	[2g	.	.
=16	=16	=16	=16
1A	2g]	0r	1.cc
.	2f	.	.
[1G	2e	.	.
.	[2d	.	4b
.	.	.	4a
=17	=17	=17	=17
0G]	2d]	[0g	2b
.	1c	.	2cc
.	.	.	2.dd
.	4B	.	.
.	4A	.	4cc
=18	=18	=18	=18
0r	2B	0g]	2dd
.	2.c	.	2.ee
.	4B	.	4dd
.	4c	.	[2cc
.	4d	.	.
=19	=19	=19	=19
2r	2e	0g	2cc]
2.G	4d	.	4b
.	4c	.	4a
.	1d	.	1b
4G	.	.	.
2G	.	.	.
=20	=20	=20	=20
2.A	2.c	0e	1cc
4G	4B	.	.
4A	1A	.	1r
4B	.	.	.
[2c	.	.	.
=21	=21	=21	=21
2c]	0G	[0g	2r
4B	.	.	2.dd
4A	.	.	.
1B	.	.	.
.	.	.	4dd
.	.	.	2dd
=22	=22	=22	=22
2.c	0r	0g]	2.ee
4B	.	.	4dd
4c	.	.	4ee
4d	.	.	4ff
2e	.	.	[2gg
=23	=23	=23	=23
1d	2r	[0a	2gg]
.	2.d	.	4ff
.	.	.	4ee
1r	.	.	2.ff
.	4d	.	.
.	2d	.	.
.	.	.	8ee
.	.	.	8dd
=24	=24	=24	=24
2r	0f	0a]	2cc
2.D	.	.	2dd
.	.	.	2a
4D	.	.	.
2D	.	.	[2dd
=25	=25	=25	=25
4E	1e	[0g	2dd]
4D	.	.	.
4E	.	.	1cc
4F	.	.	.
[1G	2r	.	.
.	[2d	.	4b
.	.	.	4a
=26	=26	=26	=26
1G]	4d]	0g]	1b
.	4d	.	.
.	2d	.	.
1C	2.e	.	2cc
.	.	.	[2ee
.	4d	.	.
=27	=27	=27	=27
0r	4e	[0g	4ee]
.	4f	.	4dd
.	2.g	.	4b
.	.	.	4cc
.	.	.	2dd
.	4f	.	.
.	4e	.	[2ee
.	4d	.	.
=28	=28	=28	=28
2r	2c	0g]	2ee]
2.G	2B	.	4dd
.	.	.	4cc
.	2e	.	2b
4G	.	.	.
2G	2d	.	2b
=29	=29	=29	=29
2.A	2c	0r	0cc
.	4A	.	.
4G	4B	.	.
4A	4c	.	.
4B	4d	.	.
[2c	[2e	.	.
=30	=30	=30	=30
2c]	2e]	0r	2r
4B	4d	.	2.g
4A	4c	.	.
2B	2d	.	.
.	.	.	4g
2c	[2g	.	2g
=31	=31	=31	=31
1.A	2g]	0r	2.a
.	4f	.	.
.	4e	.	4g
.	2f	.	4a
.	.	.	4b
2A	[2e	.	[2cc
=32	=32	=32	=32
0G	2e]	[0g	2cc]
.	4d	.	4b
.	4c	.	4a
.	2d	.	2.b
.	2e	.	.
.	.	.	4cc
=33	=33	=33	=33
0r	2B	0g]	2dd
.	2c	.	2ee
.	2G	.	2b
.	[2c	.	2ee
=34	=34	=34	=34
2r	2c]	0g	0dd
2.G	4B	.	.
.	4A	.	.
.	1B	.	.
4G	.	.	.
2G	.	.	.
=35	=35	=35	=35
2.A	1c	0e	2.cc
4G	.	.	4b
4A	1r	.	4cc
4B	.	.	4dd
[2c	.	.	[2ee
=36	=36	=36	=36
2c]	2r	[0g	2ee]
4B	2.d	.	4dd
4A	.	.	4cc
2B	.	.	1dd
.	4d	.	.
2B	2d	.	.
=37	=37	=37	=37
1c	2.e	0g]	1r
.	4d	.	.
1c	4e	.	2r
.	4f	.	.
.	4g	.	[2cc
.	4e	.	.
=38	=38	=38	=38
1A	2f	[0a	4cc]
.	.	.	4cc
.	2e	.	2cc
1D	2f	.	2.dd
.	2f	.	.
.	.	.	4cc
=39	=39	=39	=39
2.D	1d	0a]	4dd
.	.	.	4ee
.	.	.	1ff
4E	.	.	.
1F	2r	.	.
.	[2c	.	4ee
.	.	.	4dd
=40	=40	=40	=40
1C	4c]	[0g	2ee
.	4c	.	.
.	2c	.	2cc
2.G	2.d	.	1b
4A	4c	.	.
=41	=41	=41	=41
2B	2d	0g]	2.g
2c	2e	.	.
.	.	.	4a
2.G	2d	.	4b
.	.	.	4cc
.	2B	.	[2dd
4F	.	.	.
=42	=42	=42	=42
2E	1e	[0g	4dd]
.	.	.	4cc
2C	.	.	1cc
1G	1d	.	.
.	.	.	2b
=43	=43	=43	=43
[0C	[0c	1g_	[0cc
.	.	1g_	.
=44	=44	=44	=44
0C]	0c]	0g]	0cc]
*	*	*	*-
!! Pleni
*Ibass	*Itenor	*Icalto
!Bassus	!Tenor	!Altus
*clefF4	*clefGv2	*clefG2
*k[]	*k[]	*k[]
*G:mix	*G:mix	*G:mix
*M4/2	*M4/2	*M4/2
=45	=45	=45
0r	0c	0r
=46	=46	=46
0r	1B	0g
.	1c	.
=47	=47	=47
0r	1d	1f#
.	2c	1g
.	2B	.
=48	=48	=48
0r	4A	1a
.	4B	.
.	4c	.
.	4A	.
.	4B	2g
.	4c	.
.	[2d	2f
=49	=49	=49
1r	4d]	1e
.	4c	.
.	1c	.
[1G	.	2.d
.	2B	.
.	.	4c
=50	=50	=50
1G]	1r	4d
.	.	4e
.	.	2.d
1F#	[1d	.
.	.	4c
.	.	2A
=51	=51	=51
1G	1d]	1B
1A	1c#	1A
=52	=52	=52
2G	1d	0r
2F	.	.
4E	1e	.
4F	.	.
4G	.	.
4E	.	.
=53	=53	=53
4F	2d	0r
4G	.	.
2.A	2c	.
.	1B	.
4G	.	.
2G	.	.
=54	=54	=54
2F	4A	1r
.	4B	.
2A	4c	.
.	4A	.
2.G	4B	[1g
.	4c	.
.	[2d	.
4F	.	.
=55	=55	=55
1E	2d]	1g]
.	2c#	.
2D	1d	1f#
2d	.	.
=56	=56	=56
2c	2r	1g
2B	1d	.
1A	.	1a
.	2c	.
=57	=57	=57
0r	2B	2g
.	4A	2f
.	4B	.
.	4c	4e
.	4A	4f
.	4B	4g
.	4c	4e
=58	=58	=58
1r	4d	4f
.	4e	4g
.	1f	1a
[1c	.	.
.	4e	4g
.	4d	4f
=59	=59	=59
1c]	2e	1g
.	2c	.
1B	1G	2g
.	.	2d
=60	=60	=60
1c	1r	4e
.	.	4f
.	.	4g
.	.	4e
1d	2r	4f
.	.	4g
.	2d	[2a
=61	=61	=61
2c	4e	2a]
.	4c	.
2B	4d	2g
.	4e	.
4A	2f	1a
4B	.	.
4c	2e	.
4A	.	.
=62	=62	=62
4B	2.d	2g
4c	.	.
1d	.	1f
.	4c	.
.	2B	.
[2c	2c	2e
=63	=63	=63
2c]	2G	2.d
2B	1d	.
.	.	4e
2.A	.	4f
.	.	4g
.	[2c	[2a
4G	.	.
=64	=64	=64
2F	2c]	2a]
2G	2B	1g
1D	1A	.
.	.	2f#
=65	=65	=65
2r	1G	2.g
1G	.	.
.	.	4f
.	1r	2e
2G	.	4d
.	.	4c
=66	=66	=66
2F#	2r	1d
2.G	1d	.
.	.	1r
4F	.	.
4D	2d	.
4F	.	.
=67	=67	=67
2E	2c#	0r
2D	2.d	.
1F	.	.
.	4c	.
.	4A	.
.	4c	.
=68	=68	=68
2G	2B	0r
2.A	2A	.
.	1c	.
4G	.	.
4F	.	.
4E	.	.
=69	=69	=69
2D	2d	2r
2C	2.e	1g
1E	.	.
.	4d	.
.	4B	2g
.	4c	.
=70	=70	=70
2D	2d	2f#
2C	2.e	2.g
1D	.	.
.	4d	4f
.	[2d	4d
.	.	4f
=71	=71	=71
1A	2d]	1e
.	2c#	.
1D	2.d	2d
.	.	2f
.	4c	.
=72	=72	=72
1r	2B	2g
.	2c	2.a
2r	1d	.
.	.	4g
[2d	.	4f
.	.	4e
=73	=73	=73
2d]	0r	4d
.	.	4e
2d	.	4f
.	.	4d
2c#	.	2e
[2d	.	2f
=74	=74	=74
4d]	1r	1e
4c	.	.
4A	.	.
4c	.	.
2B	2r	1d
2G	[2g	.
=75	=75	=75
2B	2g]	0r
2c	2g	.
2d	2f#	.
[2e	[2g	.
=76	=76	=76
4e]	4g]	1r
4d	4f	.
2.d	4d	.
.	4f	.
.	[1e	2r
4c	.	.
[2c	.	[2g
=77	=77	=77
2c]	2e]	2g]
2B	2d	2g
2A	2c	2f#
4G	4B	[2g
4F	4A	.
=78	=78	=78
2E	4B	4g]
.	4c	4f
2F	1d	4d
.	.	4f
2G	.	1e
2A	2c#	.
=79	=79	=79
1D	1d	2d
.	.	2f
2E	2r	2g
2F	[2d	2a
=80	=80	=80
1G	2d]	2.g
.	2d	.
.	.	4f
1r	2c#	2e
.	[2d	4d
.	.	4e
=81	=81	=81
1r	4d]	4f
.	4c	4g
.	4A	2a
.	4c	.
2r	2B	1d
[2G	2G	.
=82	=82	=82
2G]	1B	1g
2G	.	.
2F#	2A	2a
[2G	4G	[2b
.	4A	.
=83	=83	=83
4G]	4B	4b]
4F	4c	4a
4D	2d	2.a
4F	.	.
1E	4c	.
.	4B	4g
.	4A	[2g
.	4G	.
=84	=84	=84
1D	1A	2g]
.	.	2f
1G	1B	2e
.	.	2d
=85	=85	=85
0C	0c	0e
=86	=86	=86
[0G	[0B	[0d
=87	=87	=87
0G]	0B]	0d]
*-	*-	*-
!! Hosanna
**kern	**kern	**kern	**kern
*Ibass	*Itenor	*Icalto	*Icant
!Bassus	!Tenor	!Altus	!Cantus
*clefF4	*clefGv2	*clefG2	*clefG2
*k[]	*k[]	*k[]	*k[]
*G:mix	*G:mix	*G:mix	*G:mix
*M3/2	*M3/2	*M3/2	*M3/2
=88	=88	=88	=88
1r	1r	1r	2.a
.	.	.	4b
2r	2r	2r	2cc
=89	=89	=89	=89
1r	1r	2.d	2dd
.	.	.	2a
.	.	4e	.
2r	2r	2f	2dd
=90	=90	=90	=90
1r	1r	2g	2ee
.	.	2d	2.ff
2r	2r	2f	.
.	.	.	4ee
=91	=91	=91	=91
1r	1r	2g	1dd
.	.	1e	.
2r	2r	.	2cc#
=92	=92	=92	=92
2.D	1.d	2.f	1.dd
4E	.	4g	.
2F	.	2a	.
=93	=93	=93	=93
2G	1.d	2b-	1r
2D	.	1a	.
2F	.	.	2r
=94	=94	=94	=94
2G	1.d	2d	1r
1E	.	1g	.
.	.	.	2r
=95	=95	=95	=95
2D	[1.d	2.f#	2.a
2r	.	.	.
.	.	4e	4g
2r	.	2f#	2a
=96	=96	=96	=96
2.G	1.d]	1.g	2.b
4A	.	.	4cc
2B	.	.	2dd
=97	=97	=97	=97
1c	[1.e	1r	2.g
.	.	.	4a
2G	.	2r	2b
=98	=98	=98	=98
2.A	1.e]	2.c	2.cc
4G	.	4d	4b
2E	.	2e	2g
=99	=99	=99	=99
2F#	1.d	2A	2a
2.G	.	2d	2.b
.	.	2G	.
4F#	.	.	4a
=100	=100	=100	=100
2G	[1.d	2B	1g
1D	.	1A	.
.	.	.	2f#
=101	=101	=101	=101
2.G	1.d]	2.B	1g
4A	.	4c	.
2B	.	2d	2r
=102	=102	=102	=102
2c	1r	2e	2.g
1G	.	2B	.
.	.	.	4a
.	2r	2d	2b
=103	=103	=103	=103
1r	1r	4c	2cc
.	.	4d	.
.	.	4e	2g
.	.	4f	.
2r	2r	2g	2b
=104	=104	=104	=104
2.A	1r	2e	2.cc
.	.	2a	.
4B	.	.	4dd
2c	2r	2g	2ee
=105	=105	=105	=105
2d	1r	2f	4a
.	.	.	4b
2A	.	2a	4cc
.	.	.	4dd
2c	2r	2g	2ee
=106	=106	=106	=106
2d	1r	2f	1dd
1A	.	1e	.
.	2r	.	2cc
=107	=107	=107	=107
2.D	1.d	2.d	2b
.	.	.	2.a
4E	.	4c	.
2F#	.	2A	.
.	.	.	4g
=108	=108	=108	=108
2G	1.d	2B	1g
1D	.	1A	.
.	.	.	2f#
=109	=109	=109	=109
2d	1.B	1G	1g
2d	.	.	.
2d	.	2G	2r
=110	=110	=110	=110
2.B	[1.d	2.G	2dd
.	.	.	2dd
4c	.	4A	.
2d	.	4B	2dd
.	.	4c	.
=111	=111	=111	=111
1G	1.d]	2d	2.b
.	.	1B	.
.	.	.	4cc
2r	.	.	2dd
=112	=112	=112	=112
2c	[1.e	2c	1g
2c	.	2r	.
2c	.	2r	2g
=113	=113	=113	=113
2.A	1.e]	2a	2.cc
.	.	2a	.
4B	.	.	4dd
2c	.	2a	2ee
=114	=114	=114	=114
2d	1.d	2.f#	1a
2D	.	.	.
.	.	4g	.
2F#	.	2a	2r
=115	=115	=115	=115
1G	[1.d	2d	2dd
.	.	2g	2dd
2r	.	2f#	2dd
=116	=116	=116	=116
2G	1.d]	1g	2.b
2G	.	.	.
.	.	.	4cc
2G	.	2r	2dd
=117	=117	=117	=117
2.E	1r	2g	2.ee
.	.	2g	.
4F	.	.	4dd
2G	2r	2g	2b
=118	=118	=118	=118
1C	1r	2.e	1cc
.	.	4f	.
2r	2r	2g	2b
=119	=119	=119	=119
2A	1r	2.a	2.cc
2A	.	.	.
.	.	4g	4dd
2A	2r	2e	2ee
=120	=120	=120	=120
2.F	1r	1f	2a
.	.	.	2dd
4G	.	.	.
2A	2r	2e	[2cc
=121	=121	=121	=121
2F	1r	2f	4cc]
.	.	.	4a
2G	.	2d	2b
2E	2r	2e	2cc
=122	=122	=122	=122
2.D	1.d	2f	2.dd
.	.	2.d	.
4E	.	.	8cc
.	.	.	8b
2F	.	.	2a
.	.	4c	.
=123	=123	=123	=123
2G	1.d	2B	1g
1D	.	1A	.
.	.	.	2f#
=124	=124	=124	=124
2d	1.B	[1.G	1.g
2d	.	.	.
2d	.	.	.
=125	=125	=125	=125
2.B	[1.d	1.G]	2dd
.	.	.	2dd
4c	.	.	.
2d	.	.	2dd
=126	=126	=126	=126
2.G	1.d]	1r	2.b
4A	.	.	4cc
2B	.	2r	2dd
=127	=127	=127	=127
2.c	[1.e	1r	2.g
4B	.	.	4a
2G	.	2r	2b
=128	=128	=128	=128
1A	1.e]	2a	2.cc
.	.	2a	.
.	.	.	4dd
2A	.	2a	2ee
=129	=129	=129	=129
2.D	1.d	2.f	2.ff
4E	.	4g	4ee
2F	.	2a	4dd
.	.	.	4cc
=130	=130	=130	=130
2G	[1.d	4d	2b
.	.	4e	.
2D	.	4f	2.dd
.	.	4g	.
2F	.	2a	.
.	.	.	4cc
=131	=131	=131	=131
2G	1.d]	1g	2b
1D	.	.	1a
.	.	2f#	.
=132	=132	=132	=132
1.G	1.d	1.g	1.b
==	==	==	==
*-	*-	*-	*-
!!!CDT: 1525/^1526/-1594/2/2
!!!OCY: Italia
!!!AGN: Mass (Tenor)
!!!AST: renaissance, vocal
!!!ASW: Antiphon
!!!PWK: Masses, Book I
!!!RNB: Cadence finals: D,C
!!!YOR: Le Opere Complete, v. 1, p. 1
!!!YOO: Rome, Italy: Fratelli Scalera
!!!END: 1992//
!!!EED: John Miller
!!!YEC: Copyright 2000, John Miller
!!!YEN: United States of America
!!!YEM: Rights to all derivative electronic formats reserved.
!!!YEM: Refer to licensing agreement for further details.
!!!YEM: This file must be accompanied by the licensing agreement.
!!!YEM: A copy of the licensing agreement may be found at http://www.music-cog.ohio-state.edu/HumdrumDatabases/Palestrina/license.txt
!!!EMD: converted to Humdrum by Bret Aarden
